22x22/apps/komodo-ide.svg

<svg xmlns="http://www.w3.org/2000/svg" width="22" height="22" version="1">
 <path style="fill:#f9a825" d="M 11.023,1.0005 A 0.95997,0.93718 0 0 0 10.52,1.1263 L 2.48,5.6577 A 0.95997,0.93718 0 0 0 2.0002,6.469 V 15.532 A 0.95997,0.93718 0 0 0 2.48,16.343 L 10.52,20.874 A 0.95997,0.93718 0 0 0 11.48,20.874 L 19.519,16.343 A 0.95997,0.93718 0 0 0 20,15.532 V 6.469 A 0.95997,0.93718 0 0 0 19.519,5.6574 L 11.48,1.126 A 0.95997,0.93718 0 0 0 11.023,1.0002 Z"/>
 <path style="opacity:0.2" d="M 7.9187,17.445 C 7.8887,17.415 7.8641,17.305 7.8641,17.2 7.8641,16.966 7.7369,16.952 7.6187,17.173 7.4787,17.434 7.3641,17.362 7.3901,17.03 7.4088,16.791 7.3871,16.731 7.2914,16.755 6.7444,16.896 6.7411,16.891 7.1072,16.493 7.4985,16.068 7.5698,15.811 7.2709,15.905 7.1696,15.937 6.8752,15.982 6.6167,16.006 5.8204,16.079 5.0002,15.562 5.0002,14.988 5.0002,14.745 5.4236,14.405 6.0326,14.159 6.3423,14.034 6.6052,13.88 6.6168,13.817 6.6283,13.754 6.5074,13.618 6.3481,13.516 5.983,13.281 5.7785,12.952 5.5626,12.251 5.3138,11.443 5.3689,10.049 5.6857,9.1299 6.7845,5.9442 9.9782,4.6229 12.992,6.1071 14.921,7.057 16.315,8.5615 16.618,10.021 16.701,10.417 16.693,10.501 16.546,10.789 16.353,11.166 15.921,11.62 15.755,11.62 15.691,11.62 15.538,11.501 15.415,11.355 15.093,10.972 13.637,9.5345 13.031,8.9987 L 12.513,8.5413 12.571,8.0825 C 12.626,7.6435 12.619,7.6195 12.417,7.5273 12.108,7.387 11.678,7.5246 11.642,7.7752 11.621,7.917 11.727,8.0807 12.048,8.4052 L 12.482,8.8436 11.994,8.8448 C 11.108,8.8468 10.936,8.9869 11.373,9.3532 11.696,9.6244 11.808,9.8628 11.78,10.217 L 11.756,10.518 12.142,10.498 C 12.439,10.483 12.529,10.506 12.529,10.6 12.529,10.667 12.492,10.722 12.447,10.722 12.311,10.722 12.355,10.953 12.508,11.043 12.619,11.108 12.628,11.142 12.546,11.196 12.488,11.234 12.465,11.327 12.494,11.402 12.573,11.608 12.41,11.571 11.776,11.239 11.253,10.964 11.188,10.9 11.004,10.486 10.679,9.7515 10.401,9.5554 10.401,10.06 10.401,10.185 10.324,10.578 10.229,10.933 9.9274,12.064 9.8918,11.946 10.535,11.947 11.18,11.947 11.646,12.055 11.8,12.24 11.913,12.376 11.926,12.748 11.836,13.228 11.783,13.507 11.789,13.516 11.99,13.466 12.185,13.417 12.195,13.429 12.149,13.66 12.101,13.897 12.11,13.906 12.396,13.906 12.559,13.906 12.693,13.942 12.693,13.987 12.693,14.032 12.663,14.069 12.626,14.069 12.59,14.069 12.489,14.121 12.403,14.184 12.248,14.297 12.248,14.302 12.4,14.47 12.576,14.665 12.556,14.672 11.915,14.643 11.432,14.621 11.33,14.553 11.258,14.206 11.173,13.802 10.986,13.549 10.853,13.66 10.6,13.869 11.09,14.732 11.699,15.15 12.559,15.741 13.54,15.879 14.444,15.537 15.058,15.305 15.949,14.442 16.441,13.604 16.99,12.669 17.11,12.686 16.91,13.668 16.579,15.3 15.454,16.528 13.804,17.06 13.274,17.23 12.98,17.273 12.324,17.274 10.958,17.276 10.176,16.893 8.911,15.601 8.1147,14.788 7.8772,14.725 8.2845,15.436 L 8.5456,15.891 8.2815,16.695 C 8.1363,17.137 8.0076,17.499 7.9955,17.499 7.9834,17.499 7.949,17.474 7.919,17.444 Z M 8.2818,13.041 C 7.572,11.625 7.4141,11.054 7.4141,9.9062 7.4141,9.0451 7.4323,8.9328 7.6337,8.552 8.2431,7.3995 9.5458,6.7261 11.171,6.723 11.934,6.7215 12.797,6.8557 13.142,7.0293 13.567,7.243 14.174,7.7983 14.794,8.5412 15.519,9.4107 15.578,9.5763 15.047,9.2533 14.899,9.1637 14.699,9.0902 14.601,9.0901 14.287,9.0895 14.17,8.9984 14.116,8.7107 14.078,8.5042 13.964,8.3531 13.689,8.1441 13.07,7.672 12.834,7.8844 13.262,8.529 13.623,9.073 15.612,10.984 15.784,10.952 16.034,10.906 16.225,10.406 16.184,9.9052 16.115,9.0575 15.517,8.1764 14.582,7.545 13.728,6.9687 12.11,6.2329 11.381,6.0895 9.0561,5.6326 6.7878,7.078 6.4542,9.2283 6.2544,10.516 6.968,12.219 8.3043,13.643 8.526,13.879 8.7211,14.059 8.7378,14.042 8.7544,14.025 8.5491,13.575 8.2814,13.041 Z"/>
 <path style="fill:#f4f4f7" d="M 7.9187,16.945 C 7.8887,16.915 7.8641,16.805 7.8641,16.7 7.8641,16.466 7.7369,16.452 7.6187,16.673 7.4787,16.934 7.3641,16.862 7.3901,16.53 7.4088,16.291 7.3871,16.231 7.2914,16.255 6.7444,16.396 6.7411,16.391 7.1072,15.993 7.4985,15.568 7.5698,15.311 7.2709,15.405 7.1696,15.437 6.8752,15.482 6.6167,15.506 5.8204,15.579 5.0002,15.062 5.0002,14.488 5.0002,14.245 5.4236,13.905 6.0326,13.659 6.3423,13.534 6.6052,13.38 6.6168,13.317 6.6283,13.254 6.5074,13.118 6.3481,13.016 5.983,12.781 5.7785,12.452 5.5626,11.751 5.3138,10.943 5.3689,9.5485 5.6857,8.6299 6.7845,5.4442 9.9782,4.1229 12.992,5.6071 14.921,6.557 16.315,8.0615 16.618,9.5213 16.701,9.9166 16.693,10.001 16.546,10.289 16.353,10.666 15.921,11.12 15.755,11.12 15.691,11.12 15.538,11.001 15.415,10.855 15.093,10.472 13.637,9.0345 13.031,8.4987 L 12.513,8.0413 12.571,7.5825 C 12.626,7.1435 12.619,7.1195 12.417,7.0273 12.108,6.887 11.678,7.0246 11.642,7.2752 11.621,7.417 11.727,7.5807 12.048,7.9052 L 12.482,8.3436 11.994,8.3448 C 11.108,8.3468 10.936,8.4869 11.373,8.8532 11.696,9.1244 11.808,9.3628 11.78,9.7168 L 11.756,10.018 12.142,9.9977 C 12.439,9.9825 12.529,10.006 12.529,10.1 12.529,10.167 12.492,10.222 12.447,10.222 12.311,10.222 12.355,10.453 12.508,10.543 12.619,10.608 12.628,10.642 12.546,10.696 12.488,10.734 12.465,10.827 12.494,10.902 12.573,11.108 12.41,11.071 11.776,10.739 11.253,10.464 11.188,10.4 11.004,9.9856 10.679,9.2515 10.401,9.0554 10.401,9.5598 10.401,9.6847 10.324,10.078 10.229,10.433 9.9274,11.564 9.8918,11.446 10.535,11.447 11.18,11.447 11.646,11.555 11.8,11.74 11.913,11.876 11.926,12.248 11.836,12.728 11.783,13.007 11.789,13.016 11.99,12.966 12.185,12.917 12.195,12.929 12.149,13.16 12.101,13.397 12.11,13.406 12.396,13.406 12.559,13.406 12.693,13.442 12.693,13.487 12.693,13.532 12.663,13.569 12.626,13.569 12.59,13.569 12.489,13.621 12.403,13.684 12.248,13.797 12.248,13.802 12.4,13.97 12.576,14.165 12.556,14.172 11.915,14.143 11.432,14.121 11.33,14.053 11.258,13.706 11.173,13.302 10.986,13.049 10.853,13.16 10.6,13.369 11.09,14.232 11.699,14.65 12.559,15.241 13.54,15.379 14.444,15.037 15.058,14.805 15.949,13.942 16.441,13.104 16.99,12.169 17.11,12.186 16.91,13.168 16.579,14.8 15.454,16.028 13.804,16.56 13.274,16.73 12.98,16.773 12.324,16.774 10.958,16.776 10.176,16.393 8.911,15.101 8.1147,14.288 7.8772,14.225 8.2845,14.936 L 8.5456,15.391 8.2815,16.195 C 8.1363,16.637 8.0076,16.999 7.9955,16.999 7.9834,16.999 7.949,16.974 7.919,16.944 Z M 8.2818,12.541 C 7.572,11.125 7.4141,10.554 7.4141,9.4062 7.4141,8.5451 7.4323,8.4328 7.6337,8.052 8.2431,6.8995 9.5458,6.2261 11.171,6.223 11.934,6.2215 12.797,6.3557 13.142,6.5293 13.567,6.743 14.174,7.2983 14.794,8.0412 15.519,8.9107 15.578,9.0763 15.047,8.7533 14.899,8.6637 14.699,8.5902 14.601,8.5901 14.287,8.5895 14.17,8.4984 14.116,8.2107 14.078,8.0042 13.964,7.8531 13.689,7.6441 13.07,7.172 12.834,7.3844 13.262,8.029 13.623,8.573 15.612,10.484 15.784,10.452 16.034,10.406 16.225,9.9061 16.184,9.4052 16.115,8.5575 15.517,7.6764 14.582,7.045 13.728,6.4687 12.11,5.7329 11.381,5.5895 9.0561,5.1326 6.7878,6.578 6.4542,8.7283 6.2544,10.016 6.968,11.719 8.3043,13.143 8.526,13.379 8.7211,13.559 8.7378,13.542 8.7544,13.525 8.5491,13.075 8.2814,12.541 Z"/>
 <path style="opacity:0.2;fill:#f4f4f7" d="M 11.022,1.0002 A 0.95997,0.93718 0 0 0 10.521,1.1262 L 2.4797,5.6573 A 0.95997,0.93718 0 0 0 2.0002,6.4688 V 6.9688 A 0.95997,0.93718 0 0 1 2.4797,6.1573 L 10.521,1.6262 A 0.95997,0.93718 0 0 1 11.023,1.5002 0.95997,0.93718 0 0 1 11.48,1.6262 L 19.52,6.1573 A 0.95997,0.93718 0 0 1 20,6.9688 V 6.4688 A 0.95997,0.93718 0 0 0 19.519,5.6573 L 11.479,1.1262 A 0.95997,0.93718 0 0 0 11.022,1.0002 Z"/>
 <path style="opacity:0.2" d="M 2.0002,15.532 V 16.032 A 0.95997,0.93718 0 0 0 2.4797,16.843 L 10.52,21.375 A 0.95997,0.93718 0 0 0 11.479,21.375 L 19.519,16.843 A 0.95997,0.93718 0 0 0 20,16.032 V 15.532 A 0.95997,0.93718 0 0 1 19.519,16.343 L 11.479,20.875 A 0.95997,0.93718 0 0 1 10.52,20.875 L 2.4802,16.343 A 0.95997,0.93718 0 0 1 2.0007,15.532 Z"/>
</svg>

<svg xmlns="http://www.w3.org/2000/svg" width="22" height="22" version="1"><path style="fill:#f9a825" d="M11.023 1a.96.937 0 0 0-.503.126L2.48 5.658a.96.937 0 0 0-.48.811v9.063a.96.937 0 0 0 .48.811l8.04 4.531a.96.937 0 0 0 .96 0l8.039-4.531a.96.937 0 0 0 .481-.811V6.469a.96.937 0 0 0-.481-.812L11.48 1.126A.96.937 0 0 0 11.023 1z"/><path style="opacity:.2" d="M7.919 17.445c-.03-.03-.055-.14-.055-.245 0-.234-.127-.248-.245-.027-.14.261-.255.189-.229-.143.019-.239-.003-.299-.099-.275-.547.141-.55.136-.184-.262.391-.425.463-.682.164-.588a4.447 4.447 0 0 1-.654.101C5.82 16.079 5 15.562 5 14.988c0-.243.424-.583 1.033-.829.31-.125.572-.279.584-.342.011-.063-.11-.199-.269-.301-.365-.235-.57-.564-.785-1.265-.25-.808-.194-2.202.123-3.121 1.099-3.186 4.292-4.507 7.306-3.023 1.929.95 3.323 2.455 3.626 3.914.083.396.075.48-.072.768-.193.377-.625.831-.791.831-.064 0-.217-.119-.34-.265-.322-.383-1.778-1.82-2.384-2.356l-.518-.458.058-.459c.055-.439.048-.463-.154-.555-.309-.14-.739-.002-.775.248-.021.142.085.306.406.63l.434.439h-.488c-.886.003-1.058.143-.621.51.323.27.435.509.407.863l-.024.301.386-.02c.297-.015.387.008.387.102 0 .067-.037.122-.082.122-.136 0-.092.231.061.321.111.065.12.099.038.153-.058.038-.081.131-.052.206.079.206-.084.169-.718-.163-.523-.275-.588-.339-.772-.753-.325-.735-.603-.93-.603-.426 0 .125-.077.518-.172.873-.302 1.131-.337 1.013.306 1.014.645 0 1.111.108 1.265.293.113.136.126.508.036.988-.053.279-.047.288.154.238.195-.049.205-.037.159.194-.048.237-.039.246.247.246.163 0 .297.036.297.081 0 .045-.03.082-.067.082-.036 0-.137.052-.223.115-.155.113-.155.118-.003.286.176.195.156.202-.485.173-.483-.022-.585-.09-.657-.437-.085-.404-.272-.657-.405-.546-.253.209.237 1.072.846 1.49.86.591 1.841.729 2.745.387.614-.232 1.505-1.095 1.997-1.933.549-.935.669-.918.469.064-.331 1.632-1.456 2.86-3.106 3.392-.53.17-.824.213-1.48.214-1.366.002-2.148-.381-3.413-1.673-.796-.813-1.034-.876-.627-.165l.262.455-.264.804c-.146.442-.274.804-.287.804-.012 0-.046-.025-.076-.055zm.363-4.404c-.71-1.416-.868-1.987-.868-3.135 0-.86.018-.973.22-1.354.61-1.152 1.912-1.826 3.537-1.829.763-.002 1.626.133 1.971.306.425.214 1.032.77 1.652 1.512.725.87.784 1.035.253.712-.148-.09-.348-.163-.446-.163-.314 0-.431-.092-.485-.38-.038-.206-.152-.357-.427-.566-.619-.472-.855-.26-.427.385.361.544 2.35 2.455 2.522 2.423.25-.046.441-.546.4-1.047-.069-.848-.667-1.729-1.602-2.36-.854-.576-2.472-1.312-3.201-1.455-2.325-.457-4.593.988-4.927 3.138-.2 1.288.514 2.991 1.85 4.415.222.236.417.416.434.399.016-.017-.189-.467-.457-1.001z"/><path style="fill:#f4f4f7" d="M7.919 16.945c-.03-.03-.055-.14-.055-.245 0-.234-.127-.248-.245-.027-.14.261-.255.189-.229-.143.019-.239-.003-.299-.099-.275-.547.141-.55.136-.184-.262.391-.425.463-.682.164-.588a4.447 4.447 0 0 1-.654.101C5.82 15.579 5 15.062 5 14.488c0-.243.424-.583 1.033-.829.31-.125.572-.279.584-.342.011-.063-.11-.199-.269-.301-.365-.235-.57-.564-.785-1.265-.25-.808-.194-2.202.123-3.121 1.099-3.186 4.292-4.507 7.306-3.023 1.929.95 3.323 2.455 3.626 3.914.083.396.075.48-.072.768-.193.377-.625.831-.791.831-.064 0-.217-.119-.34-.265-.322-.383-1.778-1.82-2.384-2.356l-.518-.458.058-.459c.055-.438.048-.462-.154-.555-.309-.14-.739-.002-.775.248-.021.142.085.306.406.63l.434.439h-.488c-.886.003-1.058.143-.621.51.323.27.435.509.407.863l-.024.301.386-.02c.297-.015.387.008.387.102 0 .067-.037.122-.082.122-.136 0-.092.231.061.321.111.065.12.099.038.153-.058.038-.081.131-.052.206.079.206-.084.169-.718-.163-.523-.275-.588-.339-.772-.753-.325-.735-.603-.93-.603-.426 0 .125-.077.518-.172.873-.302 1.131-.337 1.013.306 1.014.645 0 1.111.108 1.265.293.113.136.126.508.036.988-.053.279-.047.288.154.238.195-.049.205-.037.159.194-.048.237-.039.246.247.246.163 0 .297.036.297.081 0 .045-.03.082-.067.082-.036 0-.137.052-.223.115-.155.113-.155.118-.003.286.176.195.156.202-.485.173-.483-.022-.585-.09-.657-.437-.085-.404-.272-.657-.405-.546-.253.209.237 1.072.846 1.49.86.591 1.841.729 2.745.387.614-.232 1.505-1.095 1.997-1.933.549-.935.669-.918.469.064-.331 1.632-1.456 2.86-3.106 3.392-.53.17-.824.213-1.48.214-1.366.002-2.148-.381-3.413-1.673-.796-.813-1.034-.876-.627-.165l.262.455-.264.804c-.146.442-.274.804-.287.804-.012 0-.046-.025-.076-.055zm.363-4.404c-.71-1.416-.868-1.987-.868-3.135 0-.86.018-.973.22-1.354.61-1.152 1.912-1.826 3.537-1.829.763-.002 1.626.133 1.971.306.425.214 1.032.77 1.652 1.512.725.87.784 1.035.253.712-.148-.09-.348-.163-.446-.163-.314 0-.431-.092-.485-.38-.038-.206-.152-.357-.427-.566-.619-.472-.855-.26-.427.385.361.544 2.35 2.455 2.522 2.423.25-.046.441-.546.4-1.047-.069-.848-.667-1.729-1.602-2.36-.854-.576-2.472-1.312-3.201-1.455-2.325-.457-4.593.988-4.927 3.138-.2 1.288.514 2.991 1.85 4.415.222.236.417.416.434.399.016-.017-.189-.467-.457-1.001z"/><path style="opacity:.2;fill:#f4f4f7" d="M11.022 1a.96.937 0 0 0-.501.126L2.48 5.657A.96.937 0 0 0 2 6.47v.5a.96.937 0 0 1 .48-.812l8.041-4.53a.96.937 0 0 1 .502-.127.96.937 0 0 1 .457.126l8.04 4.531a.96.937 0 0 1 .48.812v-.5a.96.937 0 0 0-.481-.812l-8.04-4.53A.96.937 0 0 0 11.022 1z"/><path style="opacity:.2" d="M2 15.532v.5a.96.937 0 0 0 .48.811l8.04 4.532a.96.937 0 0 0 .959 0l8.04-4.532a.96.937 0 0 0 .481-.811v-.5a.96.937 0 0 1-.481.811l-8.04 4.532a.96.937 0 0 1-.959 0l-8.04-4.532a.96.937 0 0 1-.48-.811z"/></svg>
